X:1
T:Dunfermling, CM
T:Thomas Ravenscroft, 1621
T:Dunfermling, CM
T:Public Domain
C:Thomas Ravenscroft, 1621
Z:Public Domain
%%score ( 1 2 ) ( 3 4 )
L:1/8
M:none
K:F
V:1 treble 
V:2 treble 
V:3 bass 
V:4 bass 
V:1
 [CF]4"^Tune in tenor" A2 (z C) [Cc]2 [FB]2 [FA]2 [EG]2 F4 | [Fc]4 F2 z F E2 (z G) [EG]4 | %2
 [FA]4 c2 (z F) B2 (z E) [DG]2 [CF]2 [CE]4 | [CF]4 (DE) [CF]2 D2 (z G) [CA]8 |] %4
V:2
 x4 C3 (c2 x7 F4) | x4 B3 (A2 G3) D2 x2 | x4 F3 (A2 F3) A2 x6 | x4 B,2 x G3 C2 x8 |] %4
V:3
 [F,,F,]4 F,2 [E,G,]2 [F,A,]2 [D,B,]2 C2 (z C,) [F,A,]4 | %1
 [F,A,]4 [B,,D]2 [F,C]2 [C,C]2 [G,=B,]2 [C,C]4 | %2
 [F,C]4 A,2 (z F,) [B,,D]2 [F,,C]2 [G,,B,]2 (A,,B,,) [C,G,]4 | %3
 [F,,A,]4 [G,,G,]2 [A,,F,]2 [B,,F,]2 [C,E,]2 [F,,F,]8 |] %4
V:4
 x4 F,2 x4 C,3 C2 x5 | x16 | x4 F,3 (C2 x5 A,2) x4 | x20 |] %4

